icons/svg/drone.svg

﻿<?xml version="1.0" encoding="utf-8"?>
<!DOCTYPE svg PUBLIC "-//W3C//DTD SVG 1.1//EN" "http://www.w3.org/Graphics/SVG/1.1/DTD/svg11.dtd">
<svg xmlns="http://www.w3.org/2000/svg" xmlns:xlink="http://www.w3.org/1999/xlink" version="1.1" baseProfile="full" width="24" height="24" viewBox="0 0 24.00 24.00" enable-background="new 0 0 24.00 24.00" xml:space="preserve">
	<path fill="#000000" fill-opacity="1" stroke-linejoin="round" d="M 22,11L 21,11L 20,9L 13.75,9L 16,12.5L 14,12.5L 10.75,9L 4,9C 3.44772,9 2,8.55229 2,8C 2,7.44772 3.49999,5.50004 5.49999,5.50002C 7.5,5.50001 7.66666,6.50001 9,7L 21,7C 21.5523,7 22,7.44772 22,8L 22,9L 22,11 Z M 10.75,6.50002L 14,3.00001L 16,3.00001L 13.75,6.50002L 10.75,6.50002 Z M 18,11L 18,9.50001L 19.75,9.50002L 19,11L 18,11 Z M 3,19C 2.44771,19 2,18.5523 2,18C 2,17.4477 2.44771,17 3,17C 5.20914,17 6.99999,18.7909 6.99999,21C 6.99999,21.5523 6.55228,22 5.99999,22C 5.44771,22 5,21.5523 5,21C 5,19.8954 4.10457,19 3,19 Z M 11,21C 11,21.5523 10.5523,22 9.99999,22C 9.44771,22 8.99999,21.5523 8.99999,21C 8.99999,17.6863 6.3137,15 3,15C 2.44771,15 2,14.5523 2,14C 2,13.4477 2.44771,13 3,13C 7.41827,13 11,16.5817 11,21 Z "/>
</svg>

<svg xmlns="http://www.w3.org/2000/svg" version="1.1" baseProfile="full" width="24" height="24" viewBox="0 0 24.00 24.00" xml:space="preserve"><path fill="#000" fill-opacity="1" stroke-linejoin="round" d="M22 11h-1l-1-2h-6.25L16 12.5h-2L10.75 9H4c-.552 0-2-.448-2-1s1.5-2.5 3.5-2.5S7.667 6.5 9 7h12c.552 0 1 .448 1 1v3zM10.75 6.5L14 3h2l-2.25 3.5h-3zM18 11V9.5h1.75L19 11h-1zM3 19c-.552 0-1-.448-1-1s.448-1 1-1c2.21 0 4 1.79 4 4 0 .552-.448 1-1 1s-1-.448-1-1c0-1.105-.895-2-2-2zm8 2c0 .552-.448 1-1 1s-1-.448-1-1c0-3.314-2.686-6-6-6-.552 0-1-.448-1-1s.448-1 1-1c4.418 0 8 3.582 8 8z"/></svg>
